src/core/icon/remix/dailymotion-fill.svg

<svg xmlns="http://www.w3.org/2000/svg" width="24" height="24" viewBox="0 0 24 24">
    <title>dailymotion-fill</title>
    <g id="dailymotion-fill" stroke="none" stroke-width="1" fill="none" fill-rule="evenodd">
        <path d="M13.0955689,15.4504456 C12.6118287,15.9402354 12.0056488,16.1851536 11.2770527,16.1851536 C10.5603763,16.1851536 9.9661628,15.9462335 9.49434227,15.4683699 C9.02254507,14.9905063 8.78664647,14.3752701 8.78664647,13.6226378 C8.78664647,12.9058308 9.02851659,12.3114828 9.51225684,11.839594 C9.99602044,11.3677051 10.5902339,11.1317724 11.2949673,11.1317724 C11.772736,11.1317724 12.2057183,11.2422587 12.5939141,11.4632779 C12.98211,11.6842971 13.2836953,11.9859521 13.4986936,12.368243 C13.7136919,12.7505105 13.8211793,13.1686266 13.8211793,13.6226378 C13.8211793,14.3513477 13.5793092,14.9606325 13.0955689,15.4504456 Z M13.6599248,5.37948502 L13.6599248,9.53688661 C13.2418713,9.11877054 12.7969693,8.8171155 12.3251721,8.63194484 C11.8533516,8.44677415 11.3248249,8.3541888 10.7395454,8.3541888 C9.79592766,8.3541888 8.94790099,8.58713416 8.19539543,9.05307159 C7.44288986,9.51896234 6.85763367,10.1551102 6.4395802,10.9615152 C6.02152673,11.7679203 5.8125,12.6609359 5.8125,13.6405388 C5.8125,14.6440406 6.01854097,15.5490057 6.43062291,16.3553874 C6.84270485,17.1617925 7.42796104,17.7979403 8.18643813,18.2638544 C8.94491524,18.7297919 9.81386557,18.9627372 10.7932891,18.9627372 C12.2146756,18.9627372 13.2060422,18.4968231 13.7674589,17.564995 L13.8032648,17.564995 L13.8032648,18.8392745 L16.6340713,18.8392745 L16.6340713,4.734375 L13.6599248,5.37948502 Z" id="🎨-couleur-icône" fill="#242424"></path>
    </g>
</svg>

<svg xmlns="http://www.w3.org/2000/svg" width="24" height="24" viewBox="0 0 24 24"><path fill="currentColor" fill-rule="evenodd" d="M13.096 15.45c-.484.49-1.09.735-1.819.735-.717 0-1.31-.239-1.783-.717-.471-.477-.707-1.093-.707-1.845 0-.717.242-1.312.725-1.783.484-.472 1.078-.708 1.783-.708.478 0 .91.11 1.299.331.388.221.69.523.905.905.215.383.322.8.322 1.255 0 .728-.242 1.338-.725 1.827Zm.564-10.07v4.157c-.418-.418-.863-.72-1.335-.905-.472-.185-1-.278-1.585-.278-.944 0-1.792.233-2.545.7a4.792 4.792 0 0 0-1.755 1.908c-.418.806-.628 1.699-.628 2.679 0 1.003.207 1.908.619 2.714a4.709 4.709 0 0 0 1.755 1.909c.759.466 1.628.699 2.607.699 1.422 0 2.413-.466 2.974-1.398h.036v1.274h2.831V4.734l-2.974.645Z"/></svg>
